svg/color/game.svg

<svg xmlns="http://www.w3.org/2000/svg" width="32" height="32" viewBox="0 0 32 32">
  <g fill="none" fill-rule="evenodd">
    <circle cx="16" cy="16" r="16" fill="#98C01F"/>
    <path fill="#FFF" d="M15.5,5.5 C21.0228475,5.5 25.5,9.9771525 25.5,15.5 L25.5,25.5 L15.5,25.5 C9.9771525,25.5 5.5,21.0228475 5.5,15.5 C5.5,9.9771525 9.9771525,5.5 15.5,5.5 Z M21.203125,20.4842863 L21.203125,23.078125 L23.1171875,23.078125 L23.1171875,16.4375 L16.4765625,16.4375 L16.4765625,18.3515625 L20.4134207,18.3515628 C19.426944,20.0452302 17.5915287,21.1835938 15.4902344,21.1835938 C12.3458788,21.1835938 9.796875,18.6345899 9.796875,15.4902344 C9.796875,12.3458788 12.3458788,9.796875 15.4902344,9.796875 C18.2086341,9.796875 20.4820574,11.7020454 21.0481182,14.25 L22.9772666,14.25 C22.3852847,10.6492856 19.2585509,7.90234375 15.4902344,7.90234375 C11.2995581,7.90234375 7.90234375,11.2995581 7.90234375,15.4902344 C7.90234375,19.6809107 11.2995581,23.078125 15.4902344,23.078125 C17.7685011,23.078125 19.8122549,22.0740553 21.203125,20.4842863 Z"/>
  </g>
</svg>

<svg xmlns="http://www.w3.org/2000/svg" width="32" height="32"><g fill="none" fill-rule="evenodd"><circle cx="16" cy="16" r="16" fill="#98C01F"/><path fill="#FFF" d="M15.5 5.5c5.523 0 10 4.477 10 10v10h-10c-5.523 0-10-4.477-10-10s4.477-10 10-10zm5.703 14.984v2.594h1.914v-6.64h-6.64v1.914h3.936a5.693 5.693 0 1 1 .635-4.102h1.93a7.588 7.588 0 1 0-1.774 6.234z"/></g></svg>
